chamber/images/weather.svg

<?xml version="1.0" encoding="UTF-8"?>
<svg xmlns="http://www.w3.org/2000/svg" xmlns:xlink="http://www.w3.org/1999/xlink" width="80px" height="80px" viewBox="0 0 80 80" version="1.1">
<g id="surface1">
<path style="fill-rule:nonzero;fill:rgb(97.254902%,71.372551%,17.647059%);fill-opacity:1;stroke-width:1;stroke-linecap:butt;stroke-linejoin:miter;stroke:rgb(13.725491%,9.411765%,8.235294%);stroke-opacity:1;stroke-miterlimit:10;" d="M 236.743164 272.119141 C 255.46875 248.046875 285.986328 236.328125 315.991211 241.650391 C 319.506836 242.260742 322.973633 243.115234 326.367188 244.238281 C 320.996094 210.229492 295.141602 183.105469 261.450195 176.147461 C 228.100586 169.40918 193.164062 185.009766 175.634766 213.989258 C 161.743164 237.280273 160.107422 265.869141 171.240234 290.576172 C 171.704102 290.112305 172.167969 289.648438 172.65625 289.208984 C 189.84375 273.193359 213.867188 266.772461 236.743164 272.119141 Z M 236.743164 272.119141 " transform="matrix(0.16,0,0,0.16,0,0)"/>
<path style="fill-rule:nonzero;fill:rgb(13.725491%,9.411765%,8.235294%);fill-opacity:1;stroke-width:1;stroke-linecap:butt;stroke-linejoin:miter;stroke:rgb(13.725491%,9.411765%,8.235294%);stroke-opacity:1;stroke-miterlimit:10;" d="M 171.240234 290.576172 C 160.107422 265.869141 161.743164 237.280273 175.634766 213.989258 C 193.188477 185.058594 228.125 169.40918 261.401367 176.147461 C 295.092773 183.105469 320.97168 210.229492 326.318359 244.213867 C 331.860352 246.020508 337.158203 248.4375 342.163086 251.416016 C 339.84375 212.573242 314.794922 178.808594 278.295898 165.332031 C 240.600586 151.489258 196.411133 163.696289 171.020508 194.750977 C 146.020508 225.341797 141.772461 269.042969 161.035156 303.540039 C 163.891602 298.828125 167.30957 294.482422 171.240234 290.576172 Z M 171.240234 290.576172 " transform="matrix(0.16,0,0,0.16,0,0)"/>
<path style="fill-rule:nonzero;fill:rgb(13.725491%,9.411765%,8.235294%);fill-opacity:1;stroke-width:1;stroke-linecap:butt;stroke-linejoin:miter;stroke:rgb(13.725491%,9.411765%,8.235294%);stroke-opacity:1;stroke-miterlimit:10;" d="M 253.076172 131.542969 L 253.076172 97.900391 C 253.076172 88.232422 238.061523 88.208008 238.061523 97.900391 L 238.061523 131.542969 C 238.061523 141.186523 253.076172 141.210938 253.076172 131.542969 Z M 245.581055 97.900391 Z M 245.581055 97.900391 " transform="matrix(0.16,0,0,0.16,0,0)"/>
<path style="fill-rule:nonzero;fill:rgb(13.725491%,9.411765%,8.235294%);fill-opacity:1;stroke-width:1;stroke-linecap:butt;stroke-linejoin:miter;stroke:rgb(13.725491%,9.411765%,8.235294%);stroke-opacity:1;stroke-miterlimit:10;" d="M 176.660156 152.050781 C 181.494141 160.400391 194.458008 152.856445 189.648438 144.482422 L 172.827148 115.332031 C 167.993164 106.958008 155.029297 114.526367 159.838867 122.900391 Z M 183.129883 148.266602 L 166.308594 119.116211 Z M 183.129883 148.266602 " transform="matrix(0.16,0,0,0.16,0,0)"/>
<path style="fill-rule:nonzero;fill:rgb(13.725491%,9.411765%,8.235294%);fill-opacity:1;stroke-width:1;stroke-linecap:butt;stroke-linejoin:miter;stroke:rgb(13.725491%,9.411765%,8.235294%);stroke-opacity:1;stroke-miterlimit:10;" d="M 141.210938 187.5 L 112.060547 170.654297 C 103.710938 165.820312 96.118164 178.78418 104.492188 183.666992 L 133.642578 200.488281 C 141.992188 205.273438 149.584961 192.30957 141.210938 187.5 Z M 108.300781 177.148438 L 137.451172 193.994141 Z M 108.300781 177.148438 " transform="matrix(0.16,0,0,0.16,0,0)"/>
<path style="fill-rule:nonzero;fill:rgb(13.725491%,9.411765%,8.235294%);fill-opacity:1;stroke-width:1;stroke-linecap:butt;stroke-linejoin:miter;stroke:rgb(13.725491%,9.411765%,8.235294%);stroke-opacity:1;stroke-miterlimit:10;" d="M 87.060547 263.891602 L 120.703125 263.891602 C 130.371094 263.891602 130.371094 248.901367 120.703125 248.901367 L 87.060547 248.901367 C 77.392578 248.901367 77.392578 263.891602 87.060547 263.891602 Z M 120.703125 256.396484 Z M 120.703125 256.396484 " transform="matrix(0.16,0,0,0.16,0,0)"/>
<path style="fill-rule:nonzero;fill:rgb(13.725491%,9.411765%,8.235294%);fill-opacity:1;stroke-width:1;stroke-linecap:butt;stroke-linejoin:miter;stroke:rgb(13.725491%,9.411765%,8.235294%);stroke-opacity:1;stroke-miterlimit:10;" d="M 112.084961 342.138672 L 141.235352 325.292969 C 149.584961 320.458984 142.041016 307.519531 133.666992 312.304688 L 104.516602 329.125977 C 96.142578 334.008789 103.686523 346.99707 112.084961 342.138672 Z M 137.451172 318.823242 L 108.300781 335.668945 Z M 137.451172 318.823242 " transform="matrix(0.16,0,0,0.16,0,0)"/>
<path style="fill-rule:nonzero;fill:rgb(13.725491%,9.411765%,8.235294%);fill-opacity:1;stroke-width:1;stroke-linecap:butt;stroke-linejoin:miter;stroke:rgb(13.725491%,9.411765%,8.235294%);stroke-opacity:1;stroke-miterlimit:10;" d="M 370.410156 263.891602 L 404.077148 263.891602 C 413.720703 263.891602 413.745117 248.901367 404.077148 248.901367 L 370.410156 248.901367 C 360.766602 248.901367 360.742188 263.891602 370.410156 263.891602 Z M 370.410156 256.396484 Z M 370.410156 256.396484 " transform="matrix(0.16,0,0,0.16,0,0)"/>
<path style="fill-rule:nonzero;fill:rgb(13.725491%,9.411765%,8.235294%);fill-opacity:1;stroke-width:1;stroke-linecap:butt;stroke-linejoin:miter;stroke:rgb(13.725491%,9.411765%,8.235294%);stroke-opacity:1;stroke-miterlimit:10;" d="M 357.470703 200.439453 L 386.621094 183.618164 C 394.995117 178.78418 387.451172 165.820312 379.052734 170.605469 L 349.902344 187.451172 C 341.552734 192.30957 349.09668 205.273438 357.470703 200.439453 Z M 382.836914 177.148438 L 353.710938 193.994141 Z M 382.836914 177.148438 " transform="matrix(0.16,0,0,0.16,0,0)"/>
<path style="fill-rule:nonzero;fill:rgb(13.725491%,9.411765%,8.235294%);fill-opacity:1;stroke-width:1;stroke-linecap:butt;stroke-linejoin:miter;stroke:rgb(13.725491%,9.411765%,8.235294%);stroke-opacity:1;stroke-miterlimit:10;" d="M 314.477539 152.050781 L 331.298828 122.900391 C 336.132812 114.526367 323.168945 106.958008 318.310547 115.332031 L 301.464844 144.482422 C 296.679688 152.856445 309.643555 160.424805 314.477539 152.050781 Z M 324.829102 119.116211 L 308.007812 148.266602 Z M 324.829102 119.116211 " transform="matrix(0.16,0,0,0.16,0,0)"/>
<path style="fill-rule:nonzero;fill:rgb(13.725491%,9.411765%,8.235294%);fill-opacity:1;stroke-width:1;stroke-linecap:butt;stroke-linejoin:miter;stroke:rgb(13.725491%,9.411765%,8.235294%);stroke-opacity:1;stroke-miterlimit:10;" d="M 377.246094 293.359375 C 377.783203 294.775391 378.295898 296.21582 378.759766 297.65625 C 379.223633 298.974609 379.272461 300.390625 378.930664 301.757812 C 402.514648 310.351562 416.52832 334.643555 412.158203 359.375 C 407.788086 384.106445 386.303711 402.124023 361.181641 402.124023 L 220.532227 402.124023 C 198.706055 402.124023 178.491211 390.698242 167.211914 371.99707 C 155.957031 353.295898 155.322266 330.053711 165.551758 310.766602 C 164.550781 309.326172 163.598633 307.861328 162.670898 306.37207 C 162.109375 305.444336 161.572266 304.492188 161.05957 303.564453 C 152.416992 317.96875 149.145508 334.960938 151.831055 351.5625 C 155.615234 373.876953 169.995117 392.944336 190.405273 402.758789 C 202.099609 408.227539 214.18457 409.619141 226.855469 409.619141 L 350.317383 409.619141 C 360.107422 409.619141 369.799805 409.887695 379.321289 406.787109 C 403.930664 398.730469 421.166992 374.951172 420.43457 348.925781 C 419.580078 323.022461 402.148438 300.585938 377.246094 293.359375 Z M 377.246094 293.359375 " transform="matrix(0.16,0,0,0.16,0,0)"/>
<path style="fill-rule:nonzero;fill:rgb(13.725491%,9.411765%,8.235294%);fill-opacity:1;stroke-width:1;stroke-linecap:butt;stroke-linejoin:miter;stroke:rgb(13.725491%,9.411765%,8.235294%);stroke-opacity:1;stroke-miterlimit:10;" d="M 220.532227 277.661133 C 227.050781 277.636719 233.520508 278.662109 239.72168 280.639648 C 258.764648 252.026367 295.043945 240.332031 327.197266 252.490234 C 327.050781 249.707031 326.757812 246.948242 326.318359 244.189453 C 322.949219 243.115234 319.482422 242.260742 315.991211 241.650391 C 285.986328 236.352539 255.517578 248.071289 236.791992 272.119141 C 238.452148 272.485352 240.112305 272.924805 241.796875 273.4375 L 233.325195 276.879883 C 234.448242 275.244141 235.595703 273.657227 236.816406 272.119141 C 213.94043 266.772461 189.892578 273.193359 172.705078 289.208984 C 172.241211 289.648438 171.704102 290.112305 171.289062 290.600586 C 172.387695 292.993164 173.583984 295.361328 174.926758 297.65625 C 186.669922 284.912109 203.198242 277.661133 220.532227 277.661133 Z M 220.532227 277.661133 " transform="matrix(0.16,0,0,0.16,0,0)"/>
<path style="fill-rule:nonzero;fill:rgb(13.725491%,9.411765%,8.235294%);fill-opacity:1;stroke-width:1;stroke-linecap:butt;stroke-linejoin:miter;stroke:rgb(13.725491%,9.411765%,8.235294%);stroke-opacity:1;stroke-miterlimit:10;" d="M 241.723633 273.4375 C 240.063477 272.924805 238.427734 272.485352 236.71875 272.119141 C 235.498047 273.657227 234.350586 275.244141 233.227539 276.879883 Z M 241.723633 273.4375 " transform="matrix(0.16,0,0,0.16,0,0)"/>
<path style="fill-rule:nonzero;fill:rgb(13.725491%,9.411765%,8.235294%);fill-opacity:1;stroke-width:1;stroke-linecap:butt;stroke-linejoin:miter;stroke:rgb(13.725491%,9.411765%,8.235294%);stroke-opacity:1;stroke-miterlimit:10;" d="M 342.211914 260.27832 C 354.101562 268.286133 363.40332 279.56543 368.994141 292.749023 C 370.43457 292.1875 372.021484 292.06543 373.510742 292.407227 C 374.780273 292.675781 376.025391 293.017578 377.246094 293.408203 C 370.581055 275.878906 358.227539 261.083984 342.138672 251.416016 C 342.260742 253.051758 342.30957 254.711914 342.333984 256.420898 C 342.30957 257.69043 342.285156 259.008789 342.211914 260.27832 Z M 342.211914 260.27832 " transform="matrix(0.16,0,0,0.16,0,0)"/>
<path style="fill-rule:nonzero;fill:rgb(13.725491%,9.411765%,8.235294%);fill-opacity:1;stroke-width:1;stroke-linecap:butt;stroke-linejoin:miter;stroke:rgb(13.725491%,9.411765%,8.235294%);stroke-opacity:1;stroke-miterlimit:10;" d="M 368.994141 292.749023 C 369.946289 295.019531 370.800781 297.314453 371.533203 299.658203 C 374.047852 300.170898 376.513672 300.854492 378.930664 301.757812 C 379.272461 300.390625 379.223633 298.974609 378.759766 297.65625 C 378.295898 296.21582 377.758789 294.799805 377.246094 293.359375 C 376.025391 293.017578 374.780273 292.700195 373.510742 292.358398 C 371.99707 292.041016 370.43457 292.163086 368.994141 292.749023 Z M 368.994141 292.749023 " transform="matrix(0.16,0,0,0.16,0,0)"/>
<path style="fill-rule:nonzero;fill:rgb(13.725491%,9.411765%,8.235294%);fill-opacity:1;stroke-width:1;stroke-linecap:butt;stroke-linejoin:miter;stroke:rgb(13.725491%,9.411765%,8.235294%);stroke-opacity:1;stroke-miterlimit:10;" d="M 342.333984 256.396484 C 342.382812 248.120117 331.323242 246.948242 328.173828 252.905273 C 332.861328 254.760742 337.353516 257.104492 341.577148 259.912109 C 342.114258 258.813477 342.358398 257.617188 342.333984 256.396484 Z M 342.333984 256.396484 " transform="matrix(0.16,0,0,0.16,0,0)"/>
<path style="fill-rule:nonzero;fill:rgb(13.725491%,9.411765%,8.235294%);fill-opacity:1;stroke-width:1;stroke-linecap:butt;stroke-linejoin:miter;stroke:rgb(13.725491%,9.411765%,8.235294%);stroke-opacity:1;stroke-miterlimit:10;" d="M 342.211914 260.27832 C 342.285156 258.984375 342.333984 257.69043 342.333984 256.396484 C 342.358398 257.592773 342.089844 258.764648 341.577148 259.838867 Z M 342.211914 260.27832 " transform="matrix(0.16,0,0,0.16,0,0)"/>
<path style="fill-rule:nonzero;fill:rgb(13.725491%,9.411765%,8.235294%);fill-opacity:1;stroke-width:1;stroke-linecap:butt;stroke-linejoin:miter;stroke:rgb(13.725491%,9.411765%,8.235294%);stroke-opacity:1;stroke-miterlimit:10;" d="M 165.551758 310.766602 C 168.066406 306.005859 171.191406 301.586914 174.853516 297.631836 C 173.535156 295.361328 172.314453 292.993164 171.240234 290.576172 C 167.333984 294.482422 163.916016 298.852539 161.05957 303.588867 C 161.59668 304.516602 162.109375 305.46875 162.670898 306.396484 C 163.598633 307.861328 164.550781 309.326172 165.551758 310.766602 Z M 165.551758 310.766602 " transform="matrix(0.16,0,0,0.16,0,0)"/>
<path style="fill-rule:nonzero;fill:rgb(13.725491%,9.411765%,8.235294%);fill-opacity:1;stroke-width:1;stroke-linecap:butt;stroke-linejoin:miter;stroke:rgb(13.725491%,9.411765%,8.235294%);stroke-opacity:1;stroke-miterlimit:10;" d="M 327.22168 252.514648 L 328.198242 252.880859 C 331.37207 246.899414 342.431641 248.095703 342.358398 256.396484 C 342.358398 254.711914 342.285156 253.051758 342.1875 251.391602 C 337.182617 248.413086 331.860352 245.996094 326.342773 244.189453 C 326.782227 246.948242 327.050781 249.731445 327.22168 252.514648 Z M 327.22168 252.514648 " transform="matrix(0.16,0,0,0.16,0,0)"/>
<path style=" stroke:none;fill-rule:nonzero;fill:rgb(100%,100%,100%);fill-opacity:1;" d="M 64.859375 55.601562 C 65.019531 58.648438 63.226562 61.566406 60.347656 62.667969 C 59.050781 63.164062 57.75 63.140625 56.394531 63.140625 L 37.921875 63.140625 C 37.042969 63.140625 36.160156 63.148438 35.289062 63.140625 C 32.316406 63.144531 29.546875 61.640625 27.929688 59.148438 C 26.3125 56.65625 26.070312 53.511719 27.289062 50.800781 C 27.546875 50.214844 27.867188 49.65625 28.246094 49.140625 C 28.371094 48.972656 28.503906 48.8125 28.636719 48.660156 C 30.9375 45.992188 34.648438 45.03125 38.023438 46.070312 C 38.558594 46.230469 39.082031 45.953125 39.378906 45.519531 C 41.71875 42.074219 46.003906 40.21875 50.121094 41.023438 C 50.882812 41.171875 51.621094 41.40625 52.332031 41.714844 C 52.472656 41.773438 52.609375 41.835938 52.742188 41.902344 C 52.878906 41.96875 53.054688 42.0625 53.207031 42.140625 C 55.609375 43.453125 57.417969 45.636719 58.261719 48.238281 C 58.324219 48.683594 58.667969 49.039062 59.113281 49.109375 C 62.230469 49.773438 64.679688 52.363281 64.859375 55.601562 Z M 64.859375 55.601562 "/>
<path style=" stroke:none;fill-rule:nonzero;fill:rgb(13.725491%,9.411765%,8.235294%);fill-opacity:1;" d="M 60.628906 48.28125 C 64.402344 49.65625 66.644531 53.542969 65.945312 57.5 C 65.246094 61.457031 61.808594 64.339844 57.789062 64.339844 L 35.285156 64.339844 C 31.351562 64.339844 27.785156 62.027344 26.183594 58.433594 C 24.582031 54.84375 25.246094 50.644531 27.878906 47.71875 C 30.507812 44.796875 34.613281 43.695312 38.355469 44.910156 C 41.402344 40.328125 47.207031 38.460938 52.351562 40.402344 L 52.511719 40.464844 C 53.261719 40.761719 53.980469 41.136719 54.65625 41.585938 C 54.691406 41.605469 54.726562 41.628906 54.757812 41.652344 C 56.65625 42.933594 58.144531 44.734375 59.039062 46.84375 C 59.191406 47.203125 59.328125 47.570312 59.445312 47.945312 C 59.847656 48.027344 60.242188 48.140625 60.628906 48.28125 Z M 60.347656 62.667969 C 63.230469 61.566406 65.023438 58.648438 64.859375 55.601562 C 64.679688 52.363281 62.230469 49.773438 59.125 49.101562 C 58.683594 49.03125 58.335938 48.679688 58.277344 48.230469 C 57.433594 45.628906 55.621094 43.445312 53.222656 42.132812 C 53.0625 42.050781 52.914062 41.972656 52.757812 41.894531 C 52.601562 41.816406 52.488281 41.769531 52.347656 41.707031 C 51.636719 41.398438 50.894531 41.167969 50.136719 41.019531 C 46.019531 40.21875 41.734375 42.070312 39.390625 45.511719 C 39.097656 45.945312 38.570312 46.230469 38.035156 46.066406 C 34.664062 45.023438 30.953125 45.984375 28.652344 48.65625 C 28.515625 48.8125 28.386719 48.972656 28.261719 49.132812 C 27.882812 49.652344 27.558594 50.207031 27.300781 50.796875 C 26.085938 53.507812 26.328125 56.648438 27.945312 59.140625 C 29.558594 61.632812 32.332031 63.136719 35.300781 63.132812 C 36.179688 63.140625 37.0625 63.132812 37.933594 63.132812 L 56.394531 63.132812 C 57.75 63.140625 59.050781 63.164062 60.347656 62.667969 Z M 60.347656 62.667969 "/>
</g>
</svg>

<?xml version="1.0" ?><svg viewBox="0 0 500 500" xmlns="http://www.w3.org/2000/svg"><defs><style>.cls-1{fill:#f8b62d;}.cls-1,.cls-2{stroke:#231815;stroke-miterlimit:10;}.cls-2,.cls-4{fill:#231815;}.cls-3{fill:#fff;}</style></defs><title/><g data-name="图层 1" id="图层_1"><path class="cls-1" d="M236.75,272.11A82.26,82.26,0,0,1,316,241.64a76.19,76.19,0,0,1,10.36,2.59,82.65,82.65,0,0,0-64.92-68.08C228.11,169.4,193.17,185,175.64,214a83,83,0,0,0-4.41,76.58c.47-.46.94-.92,1.42-1.37A70.52,70.52,0,0,1,236.75,272.11Z"/><path class="cls-2" d="M171.23,290.58A83,83,0,0,1,175.64,214c17.54-28.95,52.48-44.6,85.76-37.86a82.65,82.65,0,0,1,64.92,68.08,78.27,78.27,0,0,1,15.84,7.19,98,98,0,0,0-63.86-86.09c-37.69-13.82-81.9-1.62-107.27,29.43-25,30.6-29.26,74.3-10,108.8A67.76,67.76,0,0,1,171.23,290.58Z"/><path class="cls-2" d="M253.07,131.54V97.89c0-9.65-15-9.67-15,0v33.65C238.07,141.19,253.07,141.21,253.07,131.54Zm-7.5-33.65v0Z"/><path class="cls-2" d="M176.66,152.05c4.83,8.36,17.79.81,13-7.57l-16.83-29.15c-4.83-8.36-17.79-.81-13,7.57Zm6.48-3.79-16.83-29.15Z"/><path class="cls-2" d="M141.22,187.49l-29.15-16.83c-8.37-4.84-15.94,8.12-7.57,13l29.15,16.83C142,205.28,149.59,192.32,141.22,187.49Zm-32.93-10.35L137.44,194Z"/><path class="cls-2" d="M87.06,263.9h33.65c9.65,0,9.67-15,0-15H87.06C77.4,248.9,77.39,263.9,87.06,263.9Zm33.65-7.5h0Z"/><path class="cls-2" d="M112.08,342.13l29.15-16.83c8.36-4.83.81-17.79-7.57-13l-29.15,16.83C96.15,334,103.69,347,112.08,342.13Zm25.36-23.3-29.15,16.83Z"/><path class="cls-2" d="M370.42,263.9h33.65c9.65,0,9.67-15,0-15H370.42C360.77,248.9,360.75,263.9,370.42,263.9Zm0-7.5h0Z"/><path class="cls-2" d="M357.48,200.44l29.15-16.83c8.36-4.83.81-17.79-7.57-13l-29.15,16.83C341.55,192.32,349.1,205.28,357.48,200.44Zm25.36-23.3L353.7,194Z"/><path class="cls-2" d="M314.47,152.05l16.83-29.15c4.84-8.37-8.12-15.94-13-7.57l-16.83,29.15C296.68,152.86,309.64,160.42,314.47,152.05Zm10.35-32.93L308,148.27Z"/><path class="cls-2" d="M377.25,293.37c.54,1.41,1.05,2.84,1.51,4.29a7.08,7.08,0,0,1,.16,4.09,51.75,51.75,0,0,1-17.73,100.37H220.54a62.23,62.23,0,0,1-55-91.35c-1-1.44-1.95-2.9-2.86-4.4-.56-.93-1.1-1.87-1.62-2.81a71.25,71.25,0,0,0-9.23,48,69.75,69.75,0,0,0,38.58,51.19c11.68,5.47,23.78,6.86,36.45,6.86H350.31c9.8,0,19.5.28,29-2.82,24.63-8.06,41.85-31.83,41.13-57.87A59.93,59.93,0,0,0,377.25,293.37Z"/><path class="cls-2" d="M220.54,277.65a62.16,62.16,0,0,1,19.18,3,73.75,73.75,0,0,1,87.48-28.16,82.09,82.09,0,0,0-.89-8.29A76.19,76.19,0,0,0,316,241.64a82.26,82.26,0,0,0-79.21,30.47c1.67.38,3.32.82,5,1.33l-8.47,3.45q1.68-2.46,3.5-4.78a70.52,70.52,0,0,0-64.11,17.1c-.48.45-1,.91-1.42,1.38a78.51,78.51,0,0,0,3.63,7.06A62.05,62.05,0,0,1,220.54,277.65Z"/><path class="cls-2" d="M241.72,273.44c-1.65-.51-3.3-.95-5-1.33q-1.82,2.32-3.5,4.78Z"/><path class="cls-2" d="M342.22,260.28A74,74,0,0,1,369,292.76a7.49,7.49,0,0,1,4.52-.35c1.26.27,2.5.6,3.73,1a83.68,83.68,0,0,0-35.1-42c.1,1.65.17,3.31.18,5C342.32,257.7,342.28,259,342.22,260.28Z"/><path class="cls-2" d="M369,292.76a73,73,0,0,1,2.53,6.89,51.3,51.3,0,0,1,7.39,2.1,7.08,7.08,0,0,0-.16-4.09c-.46-1.45-1-2.87-1.51-4.29-1.23-.35-2.47-.68-3.73-1A7.49,7.49,0,0,0,369,292.76Z"/><path class="cls-2" d="M342.33,256.4c.06-8.29-11-9.46-14.15-3.5a73.42,73.42,0,0,1,13.39,7A7.44,7.44,0,0,0,342.33,256.4Z"/><path class="cls-2" d="M342.22,260.28c.06-1.29.11-2.59.12-3.89a7.44,7.44,0,0,1-.77,3.46Z"/><path class="cls-2" d="M165.54,310.77a62.36,62.36,0,0,1,9.32-13.13,78.51,78.51,0,0,1-3.63-7.06,67.76,67.76,0,0,0-10.17,13c.53.94,1.06,1.88,1.62,2.81C163.59,307.87,164.56,309.33,165.54,310.77Z"/><path class="cls-2" d="M327.21,252.51l1,.38c3.17-6,14.22-4.79,14.15,3.5,0-1.67-.08-3.33-.18-5a78.27,78.27,0,0,0-15.84-7.19A82.09,82.09,0,0,1,327.21,252.51Z"/><path class="cls-3" d="M405.36,347.5c1,19.06-10.19,37.28-28.18,44.17-8.12,3.11-16.25,2.95-24.71,2.95H237c-5.48,0-11,.05-16.45,0a54.71,54.71,0,0,1-50-77.11,53.89,53.89,0,0,1,6-10.38c.78-1.05,1.59-2.06,2.44-3,14.38-16.69,37.56-22.69,58.65-16.18,3.34,1,6.63-.74,8.47-3.45,14.64-21.53,41.42-33.13,67.15-28.1a66.85,66.85,0,0,1,13.82,4.31c.87.38,1.73.77,2.57,1.18s1.94,1,2.89,1.49a67,67,0,0,1,31.6,38.11,6.37,6.37,0,0,0,5.31,5.44C388.93,311.09,404.25,327.28,405.36,347.5Z"/><path class="cls-4" d="M378.92,301.75a51.75,51.75,0,0,1-17.73,100.37H220.54a62.24,62.24,0,1,1,19.18-121.44,73.75,73.75,0,0,1,87.48-28.16l1,.38a72.34,72.34,0,0,1,13.39,7c.22.14.44.28.65.43A73.93,73.93,0,0,1,369,292.77c.95,2.24,1.8,4.54,2.53,6.89A50.84,50.84,0,0,1,378.92,301.75Zm-1.74,89.92c18-6.89,29.22-25.11,28.18-44.17-1.11-20.22-16.43-36.41-35.82-40.61a6.37,6.37,0,0,1-5.31-5.44,67,67,0,0,0-31.6-38.11c-1-.52-1.91-1-2.89-1.49s-1.7-.8-2.57-1.18a66.85,66.85,0,0,0-13.82-4.31c-25.73-5-52.51,6.57-67.15,28.1-1.84,2.71-5.13,4.48-8.47,3.45-21.09-6.51-44.27-.51-58.65,16.18-.85,1-1.66,2-2.44,3a53.89,53.89,0,0,0-6,10.38,54.71,54.71,0,0,0,50,77.11c5.48.05,11,0,16.45,0H352.47C360.93,394.62,369.06,394.78,377.18,391.67Z"/></g></svg>
